svg/files.svg

<svg xmlns="http://www.w3.org/2000/svg" viewBox="0 0 58 64" enable-background="new 0 0 58 64"><style type="text/css">.st0{fill:#343434;}</style><title>files</title><desc>Created with Sketch.</desc><path class="st0" d="M44.6 10h-6.7l-10-10h-26.9c-.6 0-1 .5-1 1v52c0 .6.5 1 1 1h17v9c0 .6.5 1 1 1h38c.6 0 1-.5 1-1v-39.6l-13.4-13.4zm-40.6 40v-46h22.3l5.8 6h-14.1v40h-14zm50 10h-32v-46h21l11 11v35z"/></svg>

<svg xmlns="http://www.w3.org/2000/svg" viewBox="0 0 58 64"><path d="M44.6 10h-6.7l-10-10H1C.4 0 0 .5 0 1v52c0 .6.5 1 1 1h17v9c0 .6.5 1 1 1h38c.6 0 1-.5 1-1V23.4L44.6 10zM4 50V4h22.3l5.8 6H18v40H4zm50 10H22V14h21l11 11v35z" fill="#343434"/></svg>
